X:1
T:Title
%%score { ( 1 3 ) | ( 2 4 ) }
L:1/8
M:4/4
K:C
V:1 treble nm="Grand Piano"
V:3 treble 
V:2 bass 
V:4 bass 
V:1
 z4 z2[Q:1/4=100] [EG]2 | E2 E2 EDCE | [EG]2 [EG]4 [EA][EB] | [Ec]2 [EB]2 [EA]2 E2 | F6 F2 | %5
 B2 B2 BGAB | [Ec]2 [Ec]4 [EAc][EAc] | [GB]2 [GB]2 [^Fd][Fc][GB][FA] |[M:3/4] G6 |[M:1/4] G2 | %10
[M:4/4] [Ec]2 [Ec]2 [Ec]2 [EG]2 | [FA]4 [EG]4 | d4 [FG]4 | [Ec]4 z4 | [Ge]2 [Ge]2 [Ge]2 [Gc]2 | %15
 c4 A2 ^GA | [^Fd]2 [Fd]2 [Gd]2 [Fd]2 |[M:9/8] d6- d z z |[M:4/4] [Ec]2 [Ec]2 [Ec]2 [EG]2 | %19
 [FA]4 [EG]4 | d4 [FG]4 | [Ec]4 z4 | [CFA]2 [CGB]2 [Bd][Ac][GB][FA] | [EG]2 [Ec]2 [Ge]2 e2 | %24
 e4 d4 |[M:3/4] [Ec]6 |] %26
V:2
 z4 z2 [C,C]2 | [C,G,C]2 [C,A,C]2 [C,G,C][C,F,C][C,E,][C,G,C] | [C,C]2 [C,C]4 [C,G,][C,G,] | %3
 [C,G,]2 [C,G,]2 [C,C]2 [C,G,C]2 | [G,B,D]6 [G,B,D]2 | [G,DF]2 [G,DF]2 [G,DF][G,B,F][G,CF][G,DF] | %6
 [C,C]2 [C,C]4 C,C, | [D,D]2 [D,D]2 [D,D][D,D][D,D][D,C] |[M:3/4] [G,B,]2 A,2[K:treble] [B,D]2 | %9
[M:1/4] [G,B,F]2 |[M:4/4][K:bass] [C,C]2 [C,G,]2 [C,G,]2 [C,C]2 | [F,C]2 F,2 C,2 C,2 | %12
 F4[K:bass] z4 | C,2 C,2 [C,C]2 [C,C]2 | [C,C]2 [C,C]2 [C,C]2 [E,_B,]2 | %15
 [F,A,F]4 [F,CF]2 [F,F]-[F,CF] | [D,A,]2 [D,C]2 [D,B,]2 [D,A,]2 | %17
[M:9/8][K:treble] [G,B,G]2 [A,C]- [A,C] [B,D]2- [B,D] [G,B,F]2 | %18
[M:4/4][K:bass] [C,C]2 [C,G,]2 [C,G,]2 [C,C]2 | [F,C]2 F,2 C,2 C,2 | F4[K:bass] z4 | %21
 C,2 C,2 C,2 C,2 | F,2 F,2 [F,C][F,C][F,C][F,C] | [C,C]2 [C,C]2 [C,C]2[K:treble] [G,CG]2 | %24
 [G,CG]4[K:bass] [G,,B,F]4 |[M:3/4] [C,G,C]6 |] %26
V:3
 x8 | x8 | x8 | x8 | x8 | x8 | x8 | x8 |[M:3/4] z2 C2 F2 |[M:1/4] x2 |[M:4/4] x8 | z2 C2 C2 C2 | %12
 z2 C2 D2 B,2 | C2 G,2 [EG]2 [EG]2 | x8 | x8 | x8 |[M:9/8] z2 ^F- F =F2- F G2 |[M:4/4] x8 | %19
 z2 C2 C2 C2 | z2 C2 D2 B,2 | C2 G,2 [CEG]2 [CEG]2 | x8 | x8 | x8 |[M:3/4] x6 |] %26
V:4
 x8 | x8 | x8 | x8 | x8 | x8 | x8 | x8 |[M:3/4] x4[K:treble] x2 |[M:1/4] x2 |[M:4/4][K:bass] x8 | %11
 x8 | [G,B,]2 A,2[K:bass] B,2 G,2 | x8 | x8 | z4 z2 .B,2 | x8 |[M:9/8][K:treble] x9 | %18
[M:4/4][K:bass] x8 | x8 | [G,B,]2 A,2[K:bass] B,2 G,2 | x8 | x8 | x6[K:treble] x2 | x4[K:bass] x4 | %25
[M:3/4] x6 |] %26

